!!!COM: Haydn, Franz Joseph
!!!OPR: String Quartet in G Minor
!!!ONM: Opus 20, No. 3
!!!OTL: Affettuoso 
!!!OMV: 4
!!!SCT: H III:33
!!!SCA: Thematisch-bibliographisches Werkevererzeichnis (A. van Hoboken)
!!!YOR: Pleyel Edition, volume 3
!!!EED: Frances Bennion
!!!ENC: Frances Bennion
!!!CDT: 1732/3/31/-1809/5/31/
!!!OCY: Österreich
!!!YEC: Copyright (c) 1994, 2000 Center for Computer Assisted Research in the Humanities
!!!YEM: Rights to all derivative editions reserved.
!!!YEM: Refer to licensing agreement for further details.
!!!YEN: United States of America
**kern	**kern	**kern	**kern
*k[b-e-]	*k[b-e-]	*k[b-e-]	*k[b-e-]
*g:	*g:	*g:	*g:
*clefF	*clefF	*clefC3	*clefF4
*M4/4	*M4/4	*M4/4	*M4/4
*tb16	*tb16	*tb16	*tb16
=0-	=0-	=0-	=0-
2..r	2..r	2..r	2..r
8r	8d	8r	8r
=1	=1	=1	=1
2r	4b-	2r	8r
.	.	.	8G
.	8a	.	8A
.	8g	.	8B-
8r	2f#	2d	2c
8a	.	.	.
8a	.	.	.
8dd	.	.	.
=2	=2	=2	=2
16dd	4g	4.G	4.B-
16cc#	.	.	.
16dd	.	.	.
16cc#	.	.	.
8dd	2.r	.	.
8g	.	8d	8B-
8f#	.	8c	8A
8g	.	8B-	8G
8a	.	8A	8F#
8b-	.	8G	8E
=3	=3	=3	=3
8dd	1r	4F#	4D
8cc	.	.	.
8aa	.	2.r	2.r
8g	.	.	.
8f#	.	.	.
8g	.	.	.
8a	.	.	.
8b-	.	.	.
=4	=4	=4	=4
8dd	4r	1r	1r
8cc	.	.	.
4ccc	4aa	.	.
2r	4.r	.	.
.	8d	.	.
=5	=5	=5	=5
2r	4b-	2r	8r
.	.	.	8G
.	8a	.	8A
.	8g	.	8B-
8r	2f#	[2d	2c
8a	.	.	.
8a	.	.	.
8dd	.	.	.
=6	=6	=6	=6
16dd	2g	4.d]	2B-
16cc#	.	.	.
16dd	.	.	.
16cc#	.	.	.
4dd	.	.	.
.	.	8G	.
8r	2f#	[2d	2c
8a	.	.	.
8a	.	.	.
8dd	.	.	.
=7	=7	=7	=7
16dd	4g	4d]	4B-
16cc#	.	.	.
16dd	.	.	.
16cc#	.	.	.
8dd	2.r	2.r	2.r
8gg	.	.	.
16gg	.	.	.
16ff#	.	.	.
16gg	.	.	.
16ff#	.	.	.
8gg	.	.	.
8bb-	.	.	.
=8	=8	=8	=8
4bb-	4r	4r	4r
4cc#	4b-	4e-	4G
4aa	4cc	4d	4F#
8r	4r	4r	4r
8cc	.	.	.
=9	=9	=9	=9
16b-	4d	4d	4G
16a	.	.	.
16b-	.	.	.
16a	.	.	.
8b-	4r	4r	4r
8ee-	.	.	.
16a-	4e-	4A-	4C
16g	.	.	.
16a-	.	.	.
16g	.	.	.
8a-	4r	4r	4r
8cc	.	.	.
=10	=10	=10	=10
16d	16d	16d	16D
16c#	16c#	16c#	16C#
16d	16d	16d	16D
16c#	16c#	16c#	16C#
8d	8d	8d	8D
8f#	8f#	8f#	8F#
4G	4G	4G	4GG
8r	4r	4r	4r
8d	.	.	.
=11	=11	=11	=11
4b-	2r	2r	8r
.	.	.	8G
8a	.	.	8A
8g	.	.	8B-
2f#	8r	[2d	2c
.	8a	.	.
.	8a	.	.
.	8dd	.	.
=12	=12	=12	=12
4g	16dd	4d]	4B-
.	16cc#	.	.
.	16dd	.	.
.	16cc#	.	.
2r	4dd	2r	2r
.	4.r	.	.
8r	.	8r	8r
8b-	8b-	8b-	8B-
=13	=13	=13	=13
4ee-	4ee-	4ee-	4e-
8b-	8b-	8b-	8B-
8g	8g	8g	8G
4e-	4e-	4e-	4E-
4d-	4d-	4d-	4D-
=14	=14	=14	=14
4c	4c	4c	4C
4B-	4B-	4B-	4BB-
4A	4A	4A	2AA
4g-	4g-	4e-	.
=15	=15	=15	=15
2ee-	16f	2cc	8A
.	16e	.	.
.	16f	.	8A
.	16e	.	.
.	8f	.	8A
.	8r	.	8A
2dd	16f	2b-	8B-
.	16e	.	.
.	16f	.	8B-
.	16e	.	.
.	8f	.	8B-
.	8r	.	8B-
=16	=16	=16	=16
2aa	16f	2cc	8E-
.	16e	.	.
.	16f	.	8E-
.	16e	.	.
.	8f	.	8E-
.	8r	.	8E-
2bb-	16f	2b-	8D
.	16e	.	.
.	16f	.	8D
.	16e	.	.
.	8f	.	8D
.	8r	.	8D
=17	=17	=17	=17
2e	16b-	4g	8G
.	16a	.	.
.	16b-	.	8G
.	16a	.	.
.	16b-	4c	8G
.	16dd	.	.
.	16cc	.	8G
.	16b-	.	.
4f	4a	4c	4F
4r	4r	4r	8r
.	.	.	8F
=18	=18	=18	=18
2r	8r	2r	4d
.	8B-	.	.
.	8c	.	8c
.	8d	.	8B-
8r	2e-	[2f	2A
8cc	.	.	.
8cc	.	.	.
8ff	.	.	.
=19	=19	=19	=19
16ff	2d	4.f]	2B-
16ee	.	.	.
16ff	.	.	.
16ee	.	.	.
4ff	.	.	.
.	.	8b-	.
8r	2e-	[2f	2A
8cc	.	.	.
8cc	.	.	.
8ff	.	.	.
=20	=20	=20	=20
16ff	2d	4.f]	2B-
16ee	.	.	.
16ff	.	.	.
16ee	.	.	.
4ff	.	.	.
.	.	8b-	.
8r	2e-	4.a	2c
8ff	.	.	.
8ff	.	.	.
8aa	.	8f	.
=21	=21	=21	=21
16bb-	4f	4B-	4d
16aa	.	.	.
16bb-	.	.	.
16aa	.	.	.
8bb-	4r	4r	4r
8ddd	.	.	.
16gg	4b-	4B-	4e-
16ff#	.	.	.
16gg	.	.	.
16ff#	.	.	.
8gg	4r	4r	4r
8bb-	.	.	.
=22	=22	=22	=22
16cc	4g	4e-	4E-
16b	.	.	.
16cc	.	.	.
16b	.	.	.
16cc	2.r	2.r	2.r
16ee-	.	.	.
16e-	.	.	.
16ee-	.	.	.
8e-	.	.	.
8gg	.	.	.
8gg	.	.	.
8gg	.	.	.
=23	=23	=23	=23
16cc	4g	4c	4E-
16b	.	.	.
16cc	.	.	.
16b	.	.	.
16cc	2.r	2.r	2.r
16ee-	.	.	.
16e-	.	.	.
16ee-	.	.	.
8e-	.	.	.
8bb-	.	.	.
8bb-	.	.	.
8bb-	.	.	.
=24	=24	=24	=24
[2G	2.d-	1B-	1G
8G 8e]	.	.	.
8d-	.	.	.
8c	4B-	.	.
8B-	.	.	.
=25	=25	=25	=25
8A 8f	4c	4F	4F
8g	.	.	.
8a	2.r	2.r	2.r
8b-	.	.	.
8cc	.	.	.
8dd	.	.	.
8ee-	.	.	.
8ff	.	.	.
=26	=26	=26	=26
8gg	2.r	2.r	2.r
8aa	.	.	.
8bb-	.	.	.
8ccc	.	.	.
8ddd	.	.	.
8eee-	.	.	.
8ccc	8a	4f	4E-
8aa	8cc	.	.
=27	=27	=27	=27
8bb-	4b-	4f	4D
8ddd	.	.	.
8ff	4r	4r	4r
8aa-	.	.	.
8ff#	4b-	4e-	4E-
8gg	.	.	.
8aa	4r	4r	4r
8bb-	.	.	.
=28	=28	=28	=28
8b	2r	2..r	2..r
8cc	.	.	.
8dd	.	.	.
8ee-	.	.	.
8f	8r	.	.
8ff	8dd	.	.
8ee-	8cc	.	.
8cc	8a	8F	8F
=29	=29	=29	=29
4b-	4b-	4f	4d
8r	8r	8e-	8c
8f	8f	8d	8B-
4gg	4ee-	4c	4A
8ff	8dd	8r	8r
8ee-	8cc	8F	8F
=30	=30	=30	=30
4dd	4b-	4f	4d
8r	8r	8e-	8c
8f	8f	8d	8B-
4gg	4ee-	4c	4A
8ff	8dd	8r	8r
8ee-	8cc	8F	8F
=31	=31	=31	=31
16dd	16b-	4d	4B-
16ee-	16cc	.	.
16ff	16dd	.	.
16gg	16ee-	.	.
16aa	16ff	8c	8A
16bb-	16gg	.	.
16ccc	16aa	8B-	8G
16ddd	16bb-	.	.
[2eee-	2ccc	16A	16F
.	.	16B-	16G
.	.	16c	16A
.	.	16d	16B-
.	.	16e-	16c
.	.	16f	16d
.	.	16g	16e-
.	.	16a	16f
=32	=32	=32	=32
2eee-]	1ccc	1a	2f
[2ddd	.	.	2f#
=33	=33	=33	=33
2ddd]	2bb-	1b-	2g
2ddd-	2gg	.	2e
=34	=34	=34	=34
2ccc	2ee-	2a	2f
2bb-	2dd	2b-	2g
=35	=35	=35	=35
2.aa-	[1b-	2.f	1d
4ff#	.	4b-	.
=36	=36	=36	=36
8gg	4b-]	4e-	4e-
8ff#	.	.	.
8gg	2.r	2.r	2.r
8bb-	.	.	.
8b	.	.	.
8cc	.	.	.
8ee-	.	.	.
8gg	.	.	.
=37	=37	=37	=37
2f	16d	16B-	4F
.	16c#	16A	.
.	16d	16B-	.
.	16c#	16A	.
.	8d	8B-	4r
.	8b-	8d	.
2cc	8r	8r	4FF
.	8e-	8A	.
.	8e-	8A	4r
.	8e-	8A	.
=38	=38	=38	=38
4b-	4d	4B-	16B-
.	.	.	16A
.	.	.	16B-
.	.	.	16A
4r	4r	4r	4B-
2ee-	2a	2cc	8r
.	.	.	8F
.	.	.	8F
.	.	.	8B-
=39	=39	=39	=39
2dd	2b-	2b-	16B-
.	.	.	16A
.	.	.	16B-
.	.	.	16A
.	.	.	4B-
2aa	2ee-	2cc	8r
.	.	.	8F
.	.	.	8F
.	.	.	8B-
=40	=40	=40	=40
2bb-	2dd	2b-	16B-
.	.	.	16A
.	.	.	16B-
.	.	.	16A
.	.	.	4B-
2ee-	2a	2cc	8r
.	.	.	8F
.	.	.	8F
.	.	.	8B-
=41	=41	=41	=41
2dd	2b-	2b-	16B-
.	.	.	16A
.	.	.	16B-
.	.	.	16A
.	.	.	4B-
2a	2e-	2c	8r
.	.	.	8FF
.	.	.	8FF
.	.	.	8BB-
=42	=42	=42	=42
4b-	4d	4B-	16BB-
.	.	.	16AA
.	.	.	16BB-
.	.	.	16AA
2r	2r	2r	4BB-
.	.	.	4.r
8r	8r	8r	.
8f	8d	8r	8r
=43	=43	=43	=43
4ff	4dd	2r	1r
8ee-	8cc	.	.
8dd	8b-	.	.
2cc	2a	8r	.
.	.	8c	.
.	.	8c	.
.	.	8f	.
=44	=44	=44	=44
2dd	2b-	16f	1r
.	.	16e	.
.	.	16f	.
.	.	16e	.
.	.	4f	.
2ee-	2a	8r	.
.	.	8c	.
.	.	8c	.
.	.	8f	.
=45	=45	=45	=45
2dd	2b-	16f	1r
.	.	16e	.
.	.	16f	.
.	.	16e	.
.	.	4f	.
2ee	2g	8r	.
.	.	8c	.
.	.	8c	.
.	.	8f	.
=46	=46	=46	=46
2ff	2a	16f	1r
.	.	16e	.
.	.	16f	.
.	.	16e	.
.	.	4f	.
2bb-	2ee	8r	.
.	.	8c	.
.	.	8c	.
.	.	8f	.
=47	=47	=47	=47
4aa	4ff	16f	1r
.	.	16e	.
.	.	16f	.
.	.	16e	.
2r	2r	4f	.
.	.	2r	.
8r	8r	.	.
8f	8f	.	.
=48	=48	=48	=48
8aa-	8ff	2..r	2..r
8gg	8ee-	.	.
8ff	8dd	.	.
8ee-	8cc	.	.
4dd	4b	.	.
4r	4r	.	.
.	.	8G	8G
=49	=49	=49	=49
4.r	4.r	4g	4e-
.	.	8f	8d
8g	8g	8e-	8c
4aa-	4ff	4d	4B
8gg	8ee-	8r	8r
8ff	8dd	8G	8G
=50	=50	=50	=50
4ee-	4cc	4g	4e-
8r	8r	8f	8d
8g	8g	8e-	8c
4aa-	4ff	4d	4B
8gg	8ee-	8r	8r
8ff	8dd	8G	8G
=51	=51	=51	=51
4ee-	4cc	4e-	4c
8r	8r	8d-	8B-
8e-	8e-	8c	8A-
4ff	4dd-	4B-	4G
8ee-	8cc	8r	8r
8dd-	8b-	8E-	8E-
=52	=52	=52	=52
4cc	4a-	4c	4A-
8r	8r	8B-	8G
8c	8c	8A-	8F
4dd-	4b-	4G	4E
8cc	8a-	8r	8r
8b-	8g	8C	8C
=53	=53	=53	=53
4a-	4f	4A-	4F
8r	8r	8G	8E
8a-	8f	8A-	8F
4aa-	4cc	4F	2FF
8ff	4a-	4d	.
8dd	.	.	.
=54	=54	=54	=54
2b	16g	2d	8GG
.	16f#	.	.
.	16g	.	8GG
.	16f#	.	.
.	8g	.	8GG
.	8r	.	8GG
2dd	16g	2B	8F
.	16f#	.	.
.	16g	.	8F
.	16f#	.	.
.	8g	.	8F
.	8r	.	8F
=55	=55	=55	=55
2cc	16g	2c	8E-
.	16f#	.	.
.	16g	.	8E-
.	16f#	.	.
.	8g	.	8E-
.	8r	.	8E-
2ff	16g	2d	8BB
.	16f#	.	.
.	16g	.	8BB
.	16f#	.	.
.	8g	.	8BB
.	8r	.	8BB
=56	=56	=56	=56
1ee-	16g	1e-	8C
.	16f#	.	.
.	16g	.	8C
.	16f#	.	.
.	8g	.	8C
.	8r	.	8C
.	16a-	.	8C
.	16g	.	.
.	16a-	.	8C
.	16g	.	.
.	8a-	.	8C
.	8r	.	8C
=57	=57	=57	=57
8aa-	[1B- 1a-	[1f	1D
8ff	.	.	.
8dd	.	.	.
8b-	.	.	.
8a-	.	.	.
8f	.	.	.
8d	.	.	.
8B-	.	.	.
=58	=58	=58	=58
4A-	4B- 4a-]	4f]	4D
2.r	2r	2.r	2.r
.	8r	.	.
.	8B-	.	.
=59	=59	=59	=59
2r	4g	2r	8r
.	.	.	8E-
.	8f	.	8F
.	8e-	.	8G
8r	2d	2B-	2A-
8f	.	.	.
8f	.	.	.
8b-	.	.	.
=60	=60	=60	=60
16b-	2e-	4.B-	2G
16a	.	.	.
16b-	.	.	.
16a	.	.	.
4b-	.	.	.
.	.	8E-	.
8r	2d	[2B-	2A-
8f	.	.	.
8f	.	.	.
8b-	.	.	.
=61	=61	=61	=61
16b-	4e-	4B-]	4G
16a	.	.	.
16b-	.	.	.
16a	.	.	.
16b-	2.r	2.r	2.r
16ee-	.	.	.
16e-	.	.	.
16ee-	.	.	.
8e-	.	.	.
8ee-	.	.	.
8ee-	.	.	.
8ee-	.	.	.
=62	=62	=62	=62
16b-	4e	4d-	4G
16a	.	.	.
16b-	.	.	.
16a	.	.	.
16b-	2.r	2.r	2.r
16dd-	.	.	.
16e	.	.	.
16dd-	.	.	.
8e	.	.	.
8dd-	.	.	.
8dd-	.	.	.
8dd-	.	.	.
=63	=63	=63	=63
16cc	4f	4f	4A-
16b	.	.	.
16cc	.	.	.
16b	.	.	.
16cc	2.r	2.r	2.r
16ff	.	.	.
16f	.	.	.
16ff	.	.	.
8f	.	.	.
8ff	.	.	.
8ff	.	.	.
8ff	.	.	.
=64	=64	=64	=64
16cc	4f#	4e-	4A
16b	.	.	.
16cc	.	.	.
16b	.	.	.
16cc	2.r	2.r	2.r
16ee-	.	.	.
16f#	.	.	.
16ee-	.	.	.
8f#	.	.	.
8ee-	.	.	.
8ee-	.	.	.
8ee-	.	.	.
=65	=65	=65	=65
16dd	4g	4g	4B-
16cc#	.	.	.
16dd	.	.	.
16cc#	.	.	.
16dd	2.r	2.r	2.r
16gg	.	.	.
16g	.	.	.
16gg	.	.	.
8g	.	.	.
8gg	.	.	.
8gg	.	.	.
8gg	.	.	.
=66	=66	=66	=66
16dd	4g	4g	4B
16cc#	.	.	.
16dd	.	.	.
16cc#	.	.	.
16dd	2.r	2.r	2.r
16ff	.	.	.
16g	.	.	.
16ff	.	.	.
8g	.	.	.
8ff	.	.	.
8ff	.	.	.
8ff	.	.	.
=67	=67	=67	=67
[1ee-	[1cc	1g	16c
.	.	.	16B
.	.	.	16c
.	.	.	16B
.	.	.	8c
.	.	.	8C
.	.	.	8E-
.	.	.	8G
.	.	.	8c
.	.	.	8G
=68	=68	=68	=68
1ee-]	1cc_	1a-	8A-
.	.	.	8AA-
.	.	.	8C
.	.	.	8E-
.	.	.	8A-
.	.	.	8c
.	.	.	8AA-
.	.	.	8GG
=69	=69	=69	=69
[1dd	1cc_	[1a	8FF#
.	.	.	8AA
.	.	.	8C
.	.	.	8D
.	.	.	8F#
.	.	.	8A
.	.	.	8c
.	.	.	8d
=70	=70	=70	=70
4dd]	4cc]	4a]	4f#
2.r	2r	2.r	2.r
.	8r	.	.
.	8d	.	.
=71	=71	=71	=71
2r	4b-	2r	8r
.	.	.	8G
.	8a	.	8A
.	8g	.	8B-
8r	2f#	2d	2c
8a	.	.	.
8a	.	.	.
8dd	.	.	.
=72	=72	=72	=72
16dd	4g	4.G	4.B-
16cc#	.	.	.
16dd	.	.	.
16cc#	.	.	.
8dd	2.r	.	.
8g	.	8d	8B-
8f#	.	8c	8A
8g	.	8B-	8G
8a	.	8A	8F#
8b-	.	8G	8E
=73	=73	=73	=73
8dd	1r	4F#	4D
8cc	.	.	.
8aa	.	2.r	2.r
8g	.	.	.
8f#	.	.	.
8g	.	.	.
8a	.	.	.
8b-	.	.	.
=74	=74	=74	=74
8dd	4r	1r	1r
8cc	.	.	.
4ccc	4aa	.	.
2r	4.r	.	.
.	8d	.	.
=75	=75	=75	=75
2r	4b-	2r	8r
.	.	.	8G
.	8a	.	8A
.	8g	.	8B-
8r	2f#	2d	2c
8a	.	.	.
8a	.	.	.
8dd	.	.	.
=76	=76	=76	=76
16dd	2g	4.d	2B-
16cc#	.	.	.
16dd	.	.	.
16cc#	.	.	.
4dd	.	.	.
.	.	8G	.
8r	2f#	2d	2c
8a	.	.	.
8a	.	.	.
8dd	.	.	.
=77	=77	=77	=77
16dd	2g	4.d	2B-
16cc#	.	.	.
16dd	.	.	.
16cc#	.	.	.
4dd	.	.	.
.	.	8g	.
8r	2f	2g	2B
8dd	.	.	.
8dd	.	.	.
8gg	.	.	.
=78	=78	=78	=78
16gg	2e-	4.g	2c
16ff#	.	.	.
16gg	.	.	.
16ff#	.	.	.
4gg	.	.	.
.	.	8c	.
8r	2f	2g	2B
8dd	.	.	.
8dd	.	.	.
8gg	.	.	.
=79	=79	=79	=79
16gg	4e-	4g	4c
16ff#	.	.	.
16gg	.	.	.
16ff#	.	.	.
8gg	2r	2r	2r
2r	.	.	.
.	8r	8r	8r
8b-	8b-	8b-	8B-
=80	=80	=80	=80
4ee-	4ee-	4ee-	4e-
8b-	8b-	8b-	8B-
8g	8g	8g	8G
4e-	4e-	4e-	4E-
4d-	4d-	4d-	4D-
=81	=81	=81	=81
2c-	2c-	2c-	1C-
2e-	2A	4G-	.
.	.	8F	.
.	.	8E-	.
=82	=82	=82	=82
2d	2B-	16F	2BB-
.	.	16E	.
.	.	16F	.
.	.	16E	.
.	.	4F	.
2f	16d	2A-	2BB
.	16c#	.	.
.	16d	.	.
.	16c#	.	.
.	4d	.	.
=83	=83	=83	=83
2e-	2c	16G	2C
.	.	16F#	.
.	.	16G	.
.	.	16F#	.
.	.	4G	.
2g	16e	2B-	2C#
.	16d#	.	.
.	16e	.	.
.	16d#	.	.
.	4e	.	.
=84	=84	=84	=84
2f#	2d	16A	2.D
.	.	16G#	.
.	.	16A	.
.	.	16G#	.
.	.	4A	.
2a	16f#	2c	.
.	16e	.	.
.	16f#	.	.
.	16e	.	.
.	4f#	.	4r
=85	=85	=85	=85
16cc	4f# 4a	4e-	4C
16b	.	.	.
16cc	.	.	.
16b	.	.	.
16cc	2.r	2.r	2.r
16ee-	.	.	.
16e-	.	.	.
16ee-	.	.	.
8e-	.	.	.
8aa	.	.	.
8ff#	.	.	.
8ee-	.	.	.
=86	=86	=86	=86
16cc	4f# 4a	4e-	4C
16b	.	.	.
16cc	.	.	.
16b	.	.	.
16cc	2.r	2.r	2.r
16ee-	.	.	.
16e-	.	.	.
16ee-	.	.	.
8e-	.	.	.
8ccc	.	.	.
8aa	.	.	.
8ff#	.	.	.
=87	=87	=87	=87
[2ee-	[2f#	[2A	[2C
8ee-]	4f#]	4A]	4C]
8dd	.	.	.
8cc	4r	4r	4r
8b-	.	.	.
=88	=88	=88	=88
8a	1r	1r	1r
8cc	.	.	.
8ee-	.	.	.
8ff#	.	.	.
8aa	.	.	.
8bb-	.	.	.
8ccc	.	.	.
8ddd	.	.	.
=89	=89	=89	=89
8eee-	2.r	2.r	2.r
8aa	.	.	.
8ccc	.	.	.
8ff#	.	.	.
8aa	.	.	.
8ee-	.	.	.
8dd	4d	4d	4F#
8cc	.	.	.
=90	=90	=90	=90
8b-	4d	4G	4G
8ff#	.	.	.
8gg	4.r	2r	2r
8b-	.	.	.
8a	.	.	.
8ee-	8cc	.	.
8dd	8b-	8r	8r
8f#	8c	8d	8D
=91	=91	=91	=91
4g	4B-	4dd	4B-
8r	8r	8cc	8A
8d	8d	8b-	8G
4ee-	4cc	4a	4F#
8dd	8b-	8r	8r
8cc	8a	8d	8D
=92	=92	=92	=92
4b-	4g	4dd	4B-
8r	8r	8cc	8A
8d	8d	8b-	8G
4ee-	4cc	4a	4F#
8dd	8b-	8r	8r
8cc	8a	8D	8D
=93	=93	=93	=93
16b-	16g	4B-	4G
16cc	16a	.	.
16dd	16b-	.	.
16ee	16cc	.	.
16ff#	16dd	8A	8F#
16gg	16ee	.	.
16aa	16ff#	8G	8E
16bb-	16gg	.	.
[2ccc	[2aa	16F#	16D
.	.	16G	16E
.	.	16A	16F#
.	.	16B-	16G
.	.	16c	16A
.	.	16d	16B-
.	.	16e-	16c
.	.	16f#	16d
=94	=94	=94	=94
2ccc]	2aa]	2f#	2d
2bb-	2gg	2g	2e-
=95	=95	=95	=95
2aa-	2ee-	2a-	2c
2gg	2ee	2b-	2c#
=96	=96	=96	=96
8r	4d	4d	4d
8ff#	.	.	.
8gg	2.r	2.r	2.r
8aa	.	.	.
8bb-	.	.	.
8gg	.	.	.
8dd	.	.	.
8b-	.	.	.
=97	=97	=97	=97
2d	16B-	16G	4D
.	16A	16F#	.
.	16B-	16G	.
.	16A	16F#	.
.	8B-	4G	4r
.	8g	.	.
2a	8r	8r	4DD
.	8f#	8c	.
.	8f#	8c	4r
.	8f#	8c	.
=98	=98	=98	=98
4g	4g	4B-	16G
.	.	.	16F#
.	.	.	16G
.	.	.	16F#
4r	4r	4r	4G
2cc	2f#	2a	8r
.	.	.	8D
.	.	.	8D
.	.	.	8G
=99	=99	=99	=99
2b-	2g	2g	16G
.	.	.	16F#
.	.	.	16G
.	.	.	16F#
.	.	.	4G
2ff#	2cc	2a	8r
.	.	.	8D
.	.	.	8D
.	.	.	8G
=100	=100	=100	=100
2gg	2b-	2b-	16G
.	.	.	16F#
.	.	.	16G
.	.	.	16F#
.	.	.	4G
2b	2f	2d	8r
.	.	.	8D
.	.	.	8D
.	.	.	8G
=101	=101	=101	=101
2cc	2e-	2g	16G
.	.	.	16F#
.	.	.	16G
.	.	.	16F#
.	.	.	4G
2f#	2c	2e-	8r
.	.	.	8D
.	.	.	8D
.	.	.	8G
=102	=102	=102	=102
2g	2B-	2d	16G
.	.	.	16F#
.	.	.	16G
.	.	.	16F#
.	.	.	4G
2f	2d	2B	8r
.	.	.	8DD
.	.	.	8DD
.	.	.	8GG
=103	=103	=103	=103
2e-	2c	2c	16GG
.	.	.	16FF#
.	.	.	16GG
.	.	.	16FF#
.	.	.	4GG
2c	2A	2F#	8r
.	.	.	8DD
.	.	.	8DD
.	.	.	8GG
=104	=104	=104	=104
4B	4G	4G	16GG
.	.	.	16FF#
.	.	.	16GG
.	.	.	16FF#
2.r	2.r	2.r	4GG
.	.	.	2r
==	==	==	==
*-	*-	*-	*-
!!!RWG1: This file contains only pitch and duration data.
!!!RWG2: Transposing instruments are not transposed.
!!!RWG3: Spines may have incompatible meters.
!!!RWG4: Durations of rests and tied notes may be interpreted.
!!!RWG: Key is interpreted using the Humdrum key tool.
!!!GTL: 6 Divertimentos ("Sun")
!!!AFT: stage1
!!!END: 1997/04/15
!!format changes:
!!content changes:
!!public access: complete
!!!KEY: 2500174234
!!!EMD: Converted from MuseData to Humdrum Dec 16, 2000, by Andreas Kornstaedt using muse2kern.
